X:1
T:March in Rinaldo. BC.34
C:G.F.Handel
L:1/8
Q:1/8=220
M:2/2
I:linebreak $
K:D
V:1 treble 
V:1
 FG | A4 A4 | A6 de | fefg f2 f2 | f4 a4 | fefg f2 f2 | f4 a4 | f2 ef gfed | e6 :: cd | e4 e4 |$ %11
 e6 a2 | ABcd e2 f2 | g4 a4 | f2 ef gfed | e2 A2 a3 g | f2 fagf e>d | d6 |] %18
